gns3server/symbols/affinity/circle/gray/communications.svg

<?xml version="1.0" encoding="UTF-8" standalone="no"?>
<svg
   xmlns:dc="http://purl.org/dc/elements/1.1/"
   xmlns:cc="http://creativecommons.org/ns#"
   xmlns:rdf="http://www.w3.org/1999/02/22-rdf-syntax-ns#"
   xmlns:svg="http://www.w3.org/2000/svg"
   xmlns="http://www.w3.org/2000/svg"
   id="svg2"
   style="clip-rule:evenodd;fill-rule:evenodd;stroke-linejoin:round;stroke-miterlimit:1.41420996"
   xml:space="preserve"
   version="1.1"
   viewBox="0 0 60 60"
   height="60"
   width="60"><metadata
     id="metadata27"><rdf:RDF><cc:Work
         rdf:about=""><dc:format>image/svg+xml</dc:format><dc:type
           rdf:resource="http://purl.org/dc/dcmitype/StillImage" /><dc:title></dc:title></cc:Work></rdf:RDF></metadata><defs
     id="defs25" /><g
     transform="matrix(0.19997959,0,0,0.19995118,0.00612242,3.3238395e-4)"
     id="Background_circle"><g
       id="g5"><g
         id="g7"><g
           id="g9"><circle
             id="circle11"
             style="fill:#ffffff"
             r="150"
             cy="150"
             cx="150" /><path
             id="path13"
             d="m 150.485,0.001 c 49.5244,-0.30805092 97.99005,26.13918 124.885,67.66 29.14949,43.41669 32.66869,102.35469 9.029,148.98 -22.3226,45.72399 -69.26524,78.27982 -120.017,82.677 C 116.79963,304.27157 67.626954,284.53159 36.597,248.141 4.2284143,211.43134 -7.8772602,158.34647 5.079,111.186 18.20087,60.591626 59.782145,18.758853 110.292,5.321 c 13.07378,-3.5887368 26.6371,-5.36778112 40.193,-5.32 z m -0.919,16 C 104.07954,15.682674 59.676029,40.73106 36.035,79.522 10.237529,120.258 9.3382219,175.08668 33.754,216.66 c 22.507056,39.83833 66.53845,66.428 112.351,67.284 44.86675,1.74378 89.5149,-21.18229 114.552,-58.394 27.38615,-39.18451 30.93913,-93.31402 9.052,-135.793 C 249.0838,48.105271 205.50868,18.954337 159.041,16.3 c -3.15359,-0.209033 -6.31449,-0.309606 -9.475,-0.299 z"
             style="fill:#4d4d4d" /></g></g><g
         id="g15"><path
           id="path17"
           style="fill:#4d4d4d"
           d="m 109.7,179.509 c -6.069,-8.27 -9.655,-18.474 -9.655,-29.509 0,-1.07 0.034,-2.131 0.1,-3.184 l 0,-66.371 -18.912,18.912 0,-29.291 29.096,-29.096 29.096,29.096 0,29.207 -18.934,-18.934 0,29.361 c 8.27,-6.069 18.474,-9.655 29.509,-9.655 1.07,0 2.131,0.034 3.184,0.1 l 66.371,0 -18.912,-18.912 29.291,0 29.096,29.096 -29.096,29.096 -29.207,0 18.934,-18.934 -29.361,0 c 6.069,8.271 9.655,18.475 9.655,29.509 0,1.07 -0.034,2.131 -0.1,3.184 l 0,66.371 18.912,-18.912 0,29.291 -29.096,29.096 -29.096,-29.096 0,-29.207 18.934,18.934 0,-29.361 c -8.27,6.069 -18.474,9.655 -29.509,9.655 -1.07,0 -2.131,-0.034 -3.184,-0.1 l -66.371,0 18.912,18.912 -29.291,0 -29.096,-29.096 29.096,-29.096 29.207,0 -18.934,18.934 29.361,0 z m 40.004,-58.805 c 16.005,0 29,12.994 29,29 0,16.005 -12.995,29 -29,29 -16.006,0 -29,-12.995 -29,-29 0,-16.006 12.994,-29 29,-29 z" /><g
           id="g19"
           transform="matrix(1.06678,0,0,1.06678,-10.0171,-10.0171)"><circle
             id="circle21"
             style="fill:#ffffff"
             r="28.177"
             cy="150"
             cx="150" /></g></g></g></g></svg>

<svg width="60" height="60" viewBox="0 0 300 300" xmlns="http://www.w3.org/2000/svg" xml:space="preserve" style="fill-rule:evenodd;clip-rule:evenodd;stroke-linejoin:round;stroke-miterlimit:2">
    <circle cx="150" cy="150" r="150" style="fill:#fffefe"/>
    <path d="M150 0c82.787 0 150 67.213 150 150s-67.213 150-150 150S0 232.787 0 150 67.213 0 150 0Zm0 16c73.957 0 134 60.043 134 134s-60.043 134-134 134S16 223.957 16 150 76.043 16 150 16Z" style="fill:#4d4d4d"/>
    <path d="M109.7 179.509A49.71 49.71 0 0 1 100.045 150c0-1.07.034-2.131.1-3.184V80.445L81.233 99.357V70.066l29.096-29.096 29.096 29.096v29.207l-18.934-18.934V109.7A49.71 49.71 0 0 1 150 100.045c1.07 0 2.131.034 3.184.1h66.371l-18.912-18.912h29.291l29.096 29.096-29.096 29.096h-29.207l18.934-18.934H190.3A49.714 49.714 0 0 1 199.955 150c0 1.07-.034 2.131-.1 3.184v66.371l18.912-18.912v29.291l-29.096 29.096-29.096-29.096v-29.207l18.934 18.934V190.3A49.71 49.71 0 0 1 150 199.955c-1.07 0-2.131-.034-3.184-.1H80.445l18.912 18.912H70.066L40.97 189.671l29.096-29.096h29.207l-18.934 18.934H109.7Zm40.004-58.805c16.005 0 29 12.994 29 29 0 16.005-12.995 29-29 29-16.006 0-29-12.995-29-29 0-16.006 12.994-29 29-29Z" style="fill:#4d4d4d" transform="matrix(.91685 0 0 .91685 12.473 12.473)"/>
</svg>
